X:1
T:Jenny Picking Cockles
R:reel
M:4/4
L:1/8
K:Dmix
d2dc AG~G2|FGAB cAGA|d2dc AGEF|GEcE EDD2|
d2dc AG~G2|FGAB c2cd|eddc AGEF|GEcE EDD2:|
|:~f3d efed|^cA~A2 ^cdeg|~f3d ed^cd|eaag edde|
~f3d efed|^cAAB =c2cd|eddc AGEF|GEcE EDD2:|
</abc>
